X: 18912
T: Independence Trail
R: slide
M: 12/8
K: Gmajor
DEF|:G3 GAB c2d c2B|ABA G2A B2A G2F|
E3 ce2 d2B G2A|B3 BAG A2B c2d|
e3 fg2 f2e def|g3 f2d (e3e3)|
d3 dcB c3 cBc|d2B G2D Ec2 c2B|
[1ABA AGF G3 DEF:|2 ABA AGF G3 GBd||
g3 f2d (e3e3)|d3 eg2 B3A2G|EG2 G2F G3 G2E|
DG2 GAB A3 ABd|g3 f2d (e3e3)|d3 dcB c3 cBc|
d2B G2D Ec2 c2B|1 ABA AGF G3 GBd:|2 ABA AGF G3 DEF||

